X:1
T:The Well-Tempered Clavier Part I Praeludium XVII
T:BWV 862
T:J. S. Bach
%%score { ( 1 3 ) | 2 }
L:1/8
M:3/4
K:Ab
V:1 treble nm="Harp"
V:3 treble 
V:2 bass 
V:1
 z A/G/ Ac EA | z B/A/ Bd EB | c2 a2 z e | d2 g2 z g | a2 e2 z e | ea/g/ af ce | d2 a2 z d | %7
 db/a/ bg db | c2 z/ e/f/g/ a/f/=d/f/ | B2- B/=d/e/f/ g/e/c/e/ | A/B/G/B/ A/c/=d/e/ f/d/B/d/ | %11
 G/A/F/A/ G/B/c/=d/ e/c/A/c/ | F/e/=d/e/ A/e/d/e/ F/e/d/e/ | G/e/=d/e/ B/e/d/e/ G/e/d/e/ | %14
 A/e/d/e/ c/e/B/e/ A/e/G/e/ | F/e/G/e/ A/=d/e/f/ G/B/A/c/ | %16
 B/e/=d/c/ B/A/B/c/ G/4F/4G/4F/4G/4F/4E/ | E2 e2 z B | A2 =d2 z d | eE/=D/ EG B,E | z F/E/ FA B,F | %21
 GB/A/ Be GB | EG/F/ GB EG | C z z _g/f/ e/f/d/e/ | c/d/B/c/ A/B/_G/A/ F/G/E/F/ | Dd/c/ df Bd | %26
 Gc/B/ ce Ac | FB/A/ Bd GB | EA/G/ Ac FA | DB/A/ Bd GB | Ec/B/ ce Ac | Fd/c/ df Bd | GB EG A2- | %33
 A/G/A/B/ c/4B/4c/4B/4c/4B/4c/4B/4 c/4B/4c/4B/4A | Ae/d/ ec GB | %35
 B/4A/4B/4A/4B/4A/4B/4A/4 e2- e/_G/F/E/ | Dd/c/ dB FA | A/4G/4A/4G/4A/4G/4A/4G/4 d2- d/F/E/D/ | %38
 C/c/B/c/ A/c/G/c/ F/c/E/c/ | D/d/c/d/ B/d/A/d/ G/d/F/d/ | EB/4A/4G/ Ac FA | dA/4G/4F/ GB EG | %42
 cA A2 G2 | A6 |] %44
V:2
 [A,CE]2 z4 | [G,B,E]2 z4 | z A,/G,/ A,C E,A, | z B,/A,/ B,D E,B, | z C/B,/ CE A,C | F,2 F2 z2 | %6
 z B,/A,/ B,D G,B, | E,2 E2 z2 | z A,/G,/ A,C F,A, | =D,G,/F,/ G,B, E,G, | C,F,/E,/ F,A, =D,F, | %11
 B,,E,/=D,/ E,G, C,E, | A,,F,/E,/ F,A, =D,F, | B,,G,/F,/ G,B, E,G, | C,A,/G,/ A,C F,A, | %15
 =D,F, B,,D, E,C, | G,,F,, G,,A,, B,,2 | z E,/=D,/ E,G, B,,E, | z F,/E,/ F,A, B,,F, | %19
 G,2 z E,/F,/ G,/F,/G,/E,/ | B,B,, z B,,/C,/ =D,/C,/D,/B,,/ | E,E,, z D/C/ B,/C/A,/B,/ | %22
 G,/A,/F,/G,/ E,/F,/D,/E,/ C,/D,/B,,/C,/ | A,,E/D/ EA CE | A,C/B,/ CE A,C | %25
 F,2- F,/A,/B,/C/ D/B,/G,/B,/ | E,2- E,/G,/A,/B,/ C/A,/F,/A,/ | %27
 D,/E,/C,/E,/ D,/F,/G,/A,/ B,/G,/E,/G,/ | C,/D,/B,,/D,/ C,/E,/F,/G,/ A,/F,/D,/F,/ | %29
 B,,/A,/G,/A,/ E,/A,/G,/A,/ B,,/A,/G,/A,/ | C,/A,/G,/A,/ E,/A,/G,/A,/ C,/A,/G,/A,/ | %31
 D,/A,/_G,/A,/ F,/A,/E,/A,/ D,/A,/C,/A,/ | B,,/D,/C,/E,/ D,/F,/E,/D,/ C,/E,/D,/F,/ | %33
 E,F,/D,/ E,D, E,E,, | A,,2 A,2 z2 | z F,/E,/ F,A, D,F, | B,,2 A,2 z2 | z E,/D,/ E,G, C,E, | %38
 A,,/A,/G,/A,/ F,/A,/E,/A,/ D,/A,/C,/A,/ | B,,/B,/A,/B,/ G,/B,/F,/B,/ E,/B,/D,/B,/ | %40
 C,C z F,/G,/ A,/G,/A,/F,/ | B,B,, z E,/F,/ G,/F,/G,/E,/ | A,D, E,D, E,E,, | A,,6 |] %44
V:3
 x6 | x6 | z2 [ce]2 z c | B2 z2 z [Bd] | [Ae]2 z2 z B | A2 z2 z2 | B2 z2 z A | G2 z2 z [Gd] | %8
 A2 z4 | x6 | x6 | x6 | x6 | x6 | x6 | x6 | z4 E2 | E2 [GB]2 z G | F2 z2 z [FA] | [EGB] z z4 | x6 | %21
 x6 | x6 | x6 | x6 | x6 | x6 | x6 | x6 | x6 | x6 | x6 | x6 | z2 G4 | A2 z4 | F2 z4 | x6 | E2 z4 | %38
 x6 | x6 | x6 | x6 | z [DF] [B,E]4 | [CE]6 |] %44

